X:554
T:Miss Lyall
R:Strathspey
B:The Athole Collection
M:C
L:1/8
K:A Minor
c/B/|A<A, A,>B, C>DE>^F|G2 B>A G2 Gc/B/|A<A, A,>B, C>DE>A|
c>AB>^G A2 Ac/B/| A<A, A,>B, C>DE>^F|G2 B>A G2 Gc/d/|e>cd>B c>AB>G|
E<A c/B/A/^G/ A2A||c/B/|A<a a>b g>g a/g/^f/g/|e<a a>^f g2 f>g|
e<a a>b g>g a/g/^f/g/|e>cd>B A2 Ac/B/|A<a a>b g>g a/g/^f/g/|e<a a>^f g2 f>g|
(3ag^f (3gab (3edc (3Bcd|e>cd>B A2A||

